X: 333
T: Maozhuxi hezan xinlianxin
%%abc-version 2.0
%%abcx-abcm2ps-target-version 5.9.1 (29 Sep 2008)
%%abc-creator hum2abc beta
%%abcx-conversion-date 2013/10/02 07:52:30
%%abc-edited-by Helmut Schaffrath
%%humdrum-veritas 541942996
%%humdrum-veritas-data 3192885847
%%continueall 1
%%barnumbers 0
L: 1/8
M: 2/4
K: Bb
b> d'c'2 [I:setbarnb 1]| 
f b g f | 
e f b d | 
c4 | 
b> d'c'2 | 
f b g f | 
g/ b/c'3 | 
fb3 | 
f4 |]  



